core/assets/icons/delivery.outline.svg

<svg width="24" height="24" viewBox="0 0 24 24" xmlns="http://www.w3.org/2000/svg"><g id="delivery=outline"><path id="Vector" d="M8.965 18C8.84612 18.8343 8.43021 19.5977 7.79368 20.1499C7.15714 20.7022 6.34272 21.0063 5.5 21.0063C4.65728 21.0063 3.84286 20.7022 3.20632 20.1499C2.56979 19.5977 2.15388 18.8343 2.035 18H1V6C1 5.73478 1.10536 5.48043 1.29289 5.29289C1.48043 5.10536 1.73478 5 2 5H16C16.2652 5 16.5196 5.10536 16.7071 5.29289C16.8946 5.48043 17 5.73478 17 6V8H20L23 12.056V18H20.965C20.8461 18.8343 20.4302 19.5977 19.7937 20.1499C19.1571 20.7022 18.3427 21.0063 17.5 21.0063C16.6573 21.0063 15.8429 20.7022 15.2063 20.1499C14.5698 19.5977 14.1539 18.8343 14.035 18H8.965ZM15 7H3V15.05C3.39456 14.6472 3.8806 14.3457 4.41675 14.1711C4.9529 13.9966 5.52329 13.9541 6.07938 14.0474C6.63546 14.1407 7.16077 14.3669 7.61061 14.7069C8.06044 15.0469 8.42148 15.4905 8.663 16H14.337C14.505 15.647 14.73 15.326 15 15.05V7ZM17 13H21V12.715L18.992 10H17V13ZM17.5 19C17.898 19 18.2796 18.8419 18.561 18.5605C18.8424 18.2791 19.0005 17.8975 19.0005 17.4995C19.0005 17.1015 18.8424 16.7199 18.561 16.4385C18.2796 16.1571 17.898 15.999 17.5 15.999C17.102 15.999 16.7204 16.1571 16.439 16.4385C16.1576 16.7199 15.9995 17.1015 15.9995 17.4995C15.9995 17.8975 16.1576 18.2791 16.439 18.5605C16.7204 18.8419 17.102 19 17.5 19V19ZM7 17.5C7 17.303 6.9612 17.108 6.88582 16.926C6.81044 16.744 6.69995 16.5786 6.56066 16.4393C6.42137 16.3001 6.25601 16.1896 6.07403 16.1142C5.89204 16.0388 5.69698 16 5.5 16C5.30302 16 5.10796 16.0388 4.92597 16.1142C4.74399 16.1896 4.57863 16.3001 4.43934 16.4393C4.30005 16.5786 4.18956 16.744 4.11418 16.926C4.0388 17.108 4 17.303 4 17.5C4 17.8978 4.15804 18.2794 4.43934 18.5607C4.72064 18.842 5.10218 19 5.5 19C5.89782 19 6.27936 18.842 6.56066 18.5607C6.84196 18.2794 7 17.8978 7 17.5V17.5Z"/></g></svg>

<svg xmlns="http://www.w3.org/2000/svg" width="24" height="24" fill="none"><path fill="#191C22" d="M8.965 18a3.5 3.5 0 0 1-6.93 0H1V6a1 1 0 0 1 1-1h14a1 1 0 0 1 1 1v2h3l3 4.056V18h-2.035a3.5 3.5 0 0 1-6.93 0h-5.07ZM15 7H3v8.05a3.5 3.5 0 0 1 5.663.95h5.674c.168-.353.393-.674.663-.95V7Zm2 6h4v-.285L18.992 10H17v3Zm.5 6a1.5 1.5 0 1 0 0-3 1.5 1.5 0 0 0 0 3ZM7 17.5a1.5 1.5 0 1 0-3 0 1.5 1.5 0 0 0 3 0Z"/></svg>
